X:175
T:GB/6a/175 When Righteous Joseph Wedded Was
%%VWML:GB-6a-175-0
F:http://www.vwml.org/record/GB/6a/175
T:Version 1 of 2
C:Sung by Mrs Cranstone, Billingshurst, VI. 07
C:Transcribed by Simon Furey and Lewis Jones
L:1/8
M:4/4
I:linebreak $
K:E
E2 | F3 E D2 E2 | F2 GF E2 E2 | A2 A2 AB c2 | B6 B2 | c2 A2 AB c2 | BcBA GF E2 | A2 B2 F2 GF | $
E6 E2 | A2 A2 ABcA | B6 AB | c2 A2 AB c2 | BcBA GF E2 | A2 B2 F2 GF | E6 |]

